X:1
T:Title
%%score ( 1 2 ) { 3 | 4 }
L:1/8
Q:1/4=98
M:4/4
K:F
V:1 treble nm="Grand Piano, Soprano"
V:2 treble 
V:3 treble nm="Choir Pad, Saint Cross, 10.4.10.4 D"
V:4 bass 
V:1
 [FA]2 [FA]2- [FA][FA][F_A][F=A] | [Fc][FA] [EA]2- [EA][EG] [EG]2- | [EG]2 F2 ED [CF]2 | %3
w: By~Frank~Lambert,~1899 * * * * *|||
 [CG]2 [CA]6 | [Fc]2 [Fc]2- [Fc][Fc][F=B][Fc] | [Fd][Fc] [EA]2- [EA][EG] F2 | ^F2 [DG]4 [DB]2 | %7
w: ||||
 [DG]2 [CE]6 | [_EF]2 [EF]2- [EF][EG][EA][FB] | [Fc]F [Fd]2 [cd]2 [=Bd]2- | [Bd]2 [FG]4 [F_e]2 | %11
w: ||||
 [Fd]2 [_Ec]6 | [Ec]2 [Ed]2- [Ed][Fc][EB][_EA] | [EB][EG] [Ff]2 [EA]2 [DF]2 | %14
w: |||
 [DB]2 G2- [EG-][DG-] [EG]2 | [CF]2 [CF]6- | [CF]2 z2 z4 |] %17
w: |||
V:2
 x8 | x8 | x8 | x8 | x8 | z4 z2 D2- | D2 z2 z4 | x8 | x8 | x8 | x8 | x8 | x8 | x8 | z2 F2 z4 | x8 | %16
 x8 |] %17
V:3
 C2 C2- CC=B,C | CC C2- C[K:bass]B, B,2 | A,2 A,2- A,/ z/ B, C2 | B,2 A,6 | %4
 A,2 A,2- A,[K:treble]CDC | B,C C2[K:bass] A,A, A,2- | A,2 G,4 G,2 | G,2 G,6 | C2 C2- CCC_E | %9
 _EE D2 F2 F2- | F2[K:bass] =B,4 A,2 | =B,2 C6 | C2[K:treble] C2- CCCC | CC C2 D2[K:bass] A,2 | %14
 B,2 B,6 | B,2 A,6- | A,2 z2 z4 |] %17
V:4
 F,2 F,2- F,F,F,F, | A,F, C,2- C,C, C,2 | ^C,2 D,2 =C,B,, A,,2 | G,,2 F,,6 | F,2 F,2- F,A,_A,=A, | %5
 z A, C,2- C,/ z/ ^C, D,2 | C,2 B,,4 G,,2 | B,,2 C,6 | A,2 A,2- A,G,F,G, | A,C B,2 _A,2 G,2- | %10
 G,2 G,4 G,2 | G,2 z2 z4 | B,2 B,2- B,A,G,^F, | G,B, A,2 A,,2 D,2 | G,,2 C,6 | C,2 F,,6- | %16
 F,,2 z2 z4 |] %17

